X: 12679
T: Fat Man's Fancy, The
R: jig
M: 6/8
K: Amajor
|:E|A3 BAB|ce/f/g agf|gec BGE|AcA BGE|
A3 BAB|ce/f/g agf|gec BGE|AcB A2:|
c|:f2f fec|efg agf|agf edc|BcB Bce|
f2f fec|efg a2 b|c'ba gba|gfg a3:|

